!!!OTL: Die Vaetergruft.
!!!OTL-incipit: ES GING WOHL UEBER DIE HAIDE
!!!COM: G. W. Fink
!!!ARE: Europa, Mitteleuropa, Deutschland
!!!SCT: F0838
!!!TXL: @@DE
!!!YEM: Copyright 1995, estate of Helmut Schaffrath.
**kern	**text
*ICvox	*
*clefG2	*
*M6/4	*
*k[]	*
*C:	*
{4c	1._Es
=1	=1
2c	ging
4c	wohl
[>4e	ü-
4e]	-ber
4e	die
=2	=2
[>2g	Hai-
8gL]	.
8aJ	.
2g}	-de
{4g	ʒur
=3	=3
[>4a	al-
4a]	-ten
4a	Ka-
2a	-pell
4a	em-
=4	=4
2.cc	-por,
4r	.
4r}	.
{4cc	ein
=5	=5
2dd	Greis
4d	im
[>4d	Waffen-
4d]	.
4d	-ge-
=6	=6
(>2.e	-ſchmei-
2b)}	-de
{4b	und
=7	=7
2b/	trat_in
4e\	den
2g\	dun-
4e	-keln
=8	=8
[>2.g	Chor.
4g]	.
4r}	.
==	==
!!!AGN: erzaehlendes Volks - Lied, Ballade; Tod
!!!ONB: ESAC (Essen Associative Code) Database: FINK
!!!AMT: compound duple
!!!AIN: vox
!!!EED: Helmut Schaffrath
!!!EEV: 1.0
!!Text: L. Uhland.
!!!RDF**kern: > = above
!!!GTL: Romanzen und Balladen
!!!source: Musikalischer Hausschatz der Deutschen. Eine Sammlung von über 1000 Liedern und Gesängen mit Singstimmen und Klavierbegleitung. Leipzig, Litterarisches Verlags-Haus.
!!!page: 593
!!!URL-scan: https://www.digitale-sammlungen.de/en/view/bsb11144622?page=529
!!!ENC: Anna Maria Matuszewska
!!!EEV: 2024/08/07
*-	*-